src/assets/filled/GalleryAdd.svg

<svg width="24" height="24" viewBox="0 0 24 24"  xmlns="http://www.w3.org/2000/svg">
<path d="M20.97 1H18.03C17.16 1 16.52 1.36 16.23 2C16.07 2.29 16 2.63 16 3.03V5.97C16 7.24 16.76 8 18.03 8H20.97C21.37 8 21.71 7.93 22 7.77C22.64 7.48 23 6.84 23 5.97V3.03C23 1.76 22.24 1 20.97 1ZM21.91 4.93C21.81 5.03 21.66 5.1 21.5 5.11H20.09V5.62L20.1 6.5C20.09 6.67 20.03 6.81 19.91 6.93C19.81 7.03 19.66 7.1 19.5 7.1C19.17 7.1 18.9 6.83 18.9 6.5V5.1L17.5 5.11C17.17 5.11 16.9 4.83 16.9 4.5C16.9 4.17 17.17 3.9 17.5 3.9L18.38 3.91H18.9V2.51C18.9 2.18 19.17 1.9 19.5 1.9C19.83 1.9 20.1 2.18 20.1 2.51L20.09 3.22V3.9H21.5C21.83 3.9 22.1 4.17 22.1 4.5C22.09 4.67 22.02 4.81 21.91 4.93Z" />
<path d="M9.00012 10.3801C10.3146 10.3801 11.3801 9.31456 11.3801 8.00012C11.3801 6.68568 10.3146 5.62012 9.00012 5.62012C7.68568 5.62012 6.62012 6.68568 6.62012 8.00012C6.62012 9.31456 7.68568 10.3801 9.00012 10.3801Z" />
<path d="M20.97 8H20.5V12.61L20.37 12.5C19.59 11.83 18.33 11.83 17.55 12.5L13.39 16.07C12.61 16.74 11.35 16.74 10.57 16.07L10.23 15.79C9.52 15.17 8.39 15.11 7.59 15.65L3.85 18.16C3.63 17.6 3.5 16.95 3.5 16.19V7.81C3.5 4.99 4.99 3.5 7.81 3.5H16V3.03C16 2.63 16.07 2.29 16.23 2H7.81C4.17 2 2 4.17 2 7.81V16.19C2 17.28 2.19 18.23 2.56 19.03C3.42 20.93 5.26 22 7.81 22H16.19C19.83 22 22 19.83 22 16.19V7.77C21.71 7.93 21.37 8 20.97 8Z" />
</svg>

<?xml version="1.0" encoding="UTF-8"?>
<svg width="24" height="24" viewBox="0 0 24 24" xmlns="http://www.w3.org/2000/svg">
 <path d="m20.97 1h-2.94c-0.87 0-1.51 0.36-1.8 1-0.16 0.29-0.23 0.63-0.23 1.03v2.94c0 1.27 0.76 2.03 2.03 2.03h2.94c0.4 0 0.74-0.07 1.03-0.23 0.64-0.29 1-0.93 1-1.8v-2.94c0-1.27-0.76-2.03-2.03-2.03zm0.94 3.93c-0.1 0.1-0.25 0.17-0.41 0.18h-1.41v0.51l0.01 0.88c-0.01 0.17-0.07 0.31-0.19 0.43-0.1 0.1-0.25 0.17-0.41 0.17-0.33 0-0.6-0.27-0.6-0.6v-1.4l-1.4 0.01c-0.33 0-0.6-0.28-0.6-0.61s0.27-0.6 0.6-0.6l0.88 0.01h0.52v-1.4c0-0.33 0.27-0.61 0.6-0.61s0.6 0.28 0.6 0.61l-0.01 0.71v0.68h1.41c0.33 0 0.6 0.27 0.6 0.6-0.01 0.17-0.08 0.31-0.19 0.43z"/>
 <path d="m9.0001 10.38c1.3145 0 2.38-1.0655 2.38-2.38s-1.0655-2.38-2.38-2.38c-1.3144 0-2.38 1.0656-2.38 2.38s1.0656 2.38 2.38 2.38z"/>
 <path d="m20.97 8h-0.47v4.61l-0.13-0.11c-0.78-0.67-2.04-0.67-2.82 0l-4.16 3.57c-0.78 0.67-2.04 0.67-2.82 0l-0.34-0.28c-0.71-0.62-1.84-0.68-2.64-0.14l-3.74 2.51c-0.22-0.56-0.35-1.21-0.35-1.97v-8.38c0-2.82 1.49-4.31 4.31-4.31h8.19v-0.47c0-0.4 0.07-0.74 0.23-1.03h-8.42c-3.64 0-5.81 2.17-5.81 5.81v8.38c0 1.09 0.19 2.04 0.56 2.84 0.86 1.9 2.7 2.97 5.25 2.97h8.38c3.64 0 5.81-2.17 5.81-5.81v-8.42c-0.29 0.16-0.63 0.23-1.03 0.23z"/>
</svg>
